svgs/sharp-regular/pallet-boxes.svg

<svg xmlns="http://www.w3.org/2000/svg" viewBox="0 0 640 512"><!--! Font Awesome Pro 6.6.0 by @fontawesome - https://fontawesome.com License - https://fontawesome.com/license (Commercial License) Copyright 2024 Fonticons, Inc. --><path d="M272 48L112 48l0 160 160 0 0-160zM112 0L272 0l48 0 0 48 0 160 0 48-48 0-160 0-48 0 0-48L64 48 64 0l48 0zM528 112l-96 0 0 96 96 0 0-96zM432 64l96 0 48 0 0 48 0 96 0 48-48 0-96 0-48 0 0-48 0-96 0-48 48 0zM0 320l24 0 40 0 24 0 24 0 184 0 24 0 24 0 184 0 24 0 24 0 40 0 24 0 0 48-24 0-40 0 0 96 40 0 24 0 0 48-24 0-40 0-24 0-24 0-184 0-24 0-24 0-184 0-24 0-24 0-40 0L0 512l0-48 24 0 40 0 0-96-40 0L0 368l0-48zM112 464l184 0 0-96-184 0 0 96zm232 0l184 0 0-96-184 0 0 96z"/></svg>

<svg xmlns="http://www.w3.org/2000/svg" viewBox="0 0 640 512"><!--! Font Awesome Pro 6.4.0 by @fontawesome - https://fontawesome.com License - https://fontawesome.com/license (Commercial License) Copyright 2023 Fonticons, Inc. --><path d="M272 48H112V208H272V48zM112 0H272h48V48 208v48H272 112 64V208 48 0h48zM528 112H432v96h96V112zM432 64h96 48v48 96 48H528 432 384V208 112 64h48zM0 320H24 64 88h24H296h24 24H528h24 24 40 24v48H616 576v96h40 24v48H616 576 552 528 344 320 296 112 88 64 24 0V464H24 64V368H24 0V320zM112 464H296V368H112v96zm232 0H528V368H344v96z"/></svg>
